X: 9437
T: Danny Meehan's
R: hornpipe
M: 4/4
K: Eminor
(3DEF|:"G "G2 "D "F2 "G "G2 de|"Em "d~d dB GE DG|"Em "EF GE DE G2|"D "AB AG "Bm "FE (3DEF|
"G "G2 "D "F2 "G "G2 Bc|"Em "d~d dB GE D2|"Em "EF GE DE GA|1 "D "B2 A2 "G "G2 (3DEF:|2 "D "B2 A2 "Em "G2 "D "F2||
|:"Em "EF GA Bc B2|"Em "EF GA Bc B2|"Am "c2 ~B2 ~A2 G2|"Em "(3FGA GF "Bm "(3^DEF B,2|
"Em "EF GA B2 e2|"Em "EF GA B2 e2|"Am "c2 ~B2 ~A2 G2|1 "D "AG FA "Em "G2 "D "F2:|2 "D "AG FA "G "G4||

